!!!COM: Josquin Desprez
!!!CDT: ~1440///-1521/08/27/
!!!OTL@IT: El grillo
!!!OTL@EN: The Cricket
!!!ODT: ~1505///
!!!PDT: 1505
!!!AGN: madrigal
**kern	**kern	**kern	**kern
*staff4	*staff3	*staff2	*staff1
*Ivox	*Ivox	*Ivox	*Ivox
*>[A,B,B,C,A]	*>[A,B,B,C,A]	*>[A,B,B,C,A]	*>[A,B,B,C,A]
*>A	*>A	*>A	*>A
*clefF4	*clefG2	*clefG2	*clefG2
*k[]	*k[]	*k[]	*k[]
*M2/2	*M2/2	*M2/2	*M2/2
*MM220	*MM220	*MM220	*MM220
=1-	=1-	=1-	=1-
1F	1cc	1ff	1a
=2	=2	=2	=2
(2G\	2b\	2dd\	(2g/
2D\)	(4.a/	2dd\	2f/)
.	8b\	.	.
=3	=3	=3	=3
2C/	2cc\)	2g/	2e/
4r	4r	4r	4r
4GG/	4b\	4dd\	4g/
=4	=4	=4	=4
4GG/	4b\	4dd\	4g/
8GG/L	8b\L	8dd\L	8g/L
8GG/J	8b\J	8dd\J	8g/J
4D\	4a/	4dd\	4f#/
4D\	4a/	4dd\	4f#/
=5	=5	=5	=5
2GG/	2g/	2dd\	2g/
4GG/	4g/	4dd\	4g/
4GG/	4g/	4dd\	4g/
=6	=6	=6	=6
4C/	4g/	4ee\	4g/
4C/	4g/	4ee\	4g/
4C/	4cc\	4ee\	4g/
4C/	4cc\	4ee\	4g/
=7	=7	=7	=7
[1C	(4.cc\	(2ee\	[1g
.	8dd\	.	.
.	2ee\	4.cc\	.
.	.	8dd\	.
=8	=8	=8	=8
1C_	4.cc\	2ee\	1g_
.	8dd\	.	.
.	2ee\	4.cc\	.
.	.	8dd\	.
=9	=9	=9	=9
1C]	4.cc\	2ee\	1g]
.	8dd\	.	.
.	2ee\)	4.cc\	.
.	.	8dd\)	.
=10	=10	=10	=10
1C;	1cc;	1ee;	1g;
=11	=11	=11	=11
2r	2r	4ff\	4a/
.	.	4ff\	4a/
4F\	4cc\	2r	2r
4F\	4cc\	.	.
=12	=12	=12	=12
2r	2r	4ff\	4a/
.	.	4ff\	4a/
4F\	4cc\	2r	2r
4F\	4cc\	.	.
=13	=13	=13	=13
2r	2r	4ff\	4a/
.	.	4ff\	4a/
4F\	4cc\	2r	2r
4F\	4cc\	.	.
=14	=14	=14	=14
2r	2r	4ff\	4a/
.	.	4ff\	4a/
4F\	4cc\	2r	2r
4F\	4cc\	.	.
=15	=15	=15	=15
8F\L	8cc\L	8ff\L	8a/L
8F\	8cc\	8ff\	8a/
8F\	8cc\	8ff\	8a/
8F\J	8cc\J	8ff\J	8a/J
8F\L	8cc\L	8ff\L	8a/L
8F\	8cc\	8ff\	8a/
8F\	8cc\	8ff\	8a/
8F\J	8cc\J	8ff\J	8a/J
=16	=16	=16	=16
8F\L	8cc\L	8ff\L	8a/L
8F\	8cc\	8ff\	8a/
8F\	8cc\	8ff\	8a/
8F\J	8cc\J	8ff\J	8a/J
4C/	4cc\	4ee\	4g/
4C/	4cc\	4ee\	4g/
=17	=17	=17	=17
1F	1cc	1ff	1a
=18	=18	=18	=18
2G\	(2b\	2dd\	(2g/
2D\	4.a/	2dd\	2f/)
.	8b\)	.	.
=19	=19	=19	=19
2C/	2cc\	2g/	2e/
4r	4r	4r	4r
4GG/	4b\	4dd\	4g/
=20	=20	=20	=20
4GG/	4b\	4dd\	4g/
8GG/L	8b\L	8dd\L	8g/L
8GG/J	8b\J	8dd\J	8g/J
4D\	4a/	4dd\	4f#/
4D\	4a/	4dd\	4f#/
=21	=21	=21	=21
2GG/	2g/	2dd\	2g/
2GG;/	2g;/	2dd;\	2g;/
=22!|:	=22!|:	=22!|:	=22!|:
*>B	*>B	*>B	*>B
4C/	4g/	4ee\	4g/
4C/	4g/	4ee\	4g/
2C/	2cc\	2ee\	2g/
=23	=23	=23	=23
*M3/2	*M3/2	*M3/2	*M3/2
2.C/	2.cc\	(2ee\	(2g/
.	.	4gg\)	4e/)
4C/	4cc\	4gg\	4e/
4D\	4a/	4dd\	4f#/
4D\	4a/	4dd\	4f#/
=24	=24	=24	=24
2GG/	2g/	2dd\	2g/
2GG/	2g/	2dd\	2g/
4F\	4cc\	4ff\	4a/
4F\	4cc\	4ff\	4a/
=25	=25	=25	=25
(4.F\	2cc\	2ff\	2a/
8E\)	.	.	.
4F\	4cc\	4ff\	4a/
4G\	4b\	4dd\	4g/
4D\	4a/	4dd\	4g/
4D\	4a/	4dd\	4f#/
=26	=26	=26	=26
*met(C)	*met(C)	*met(C)	*met(C)
*M4/4	*M4/4	*M4/4	*M4/4
2GG/	2g/	2dd\	2g/
2GG/	2g/	2dd\	2g/
=27:|!	=27:|!	=27:|!	=27:|!
*>C	*>C	*>C	*>C
2GG/	2g/	2dd\	2g/
2D\	2a/	2dd\	2f/
=28	=28	=28	=28
2GG/	2b\	2dd\	2g/
2C/	2cc\	2g/	2e/
=29	=29	=29	=29
2D\	4r	4a/	2f/
.	4a/	(2dd\	.
2AA/	2a/	.	2e/
.	.	4cc#\)	.
=30	=30	=30	=30
4D\	4a/	4dd\	4d/
4D\	4a/	4dd\	4d/
4r	4r	4r	4r
4AA/	4a/	4cc#\	4e/
=31	=31	=31	=31
2D\	2a/	2dd\	2f/
2AA/	2a/	2cc#\	2e/
=32	=32	=32	=32
4D\	4a/	4dd\	4d/
4D\	4a/	4dd\	4d/
4r	4r	4r	4r
4AA/	4a/	4cc#\	4e/
=33	=33	=33	=33
2D\	2a/	2dd\	2f/
2AA/	2a/	2cc#\	2e/
=34	=34	=34	=34
4D\	[4a/	(4dd\	(4.d/
4D\	(4a/]	8cc\L	.
.	.	8b\J	8e/
4r	4dd\)	4a/)	4f/)
4E\	[4g/	4b\	[4e/
=35	=35	=35	=35
(4C/	8g/L]	(4cc\	4e/]
.	(8f/	.	.
4D\)	8e/	4a/)	2d/
.	8d/J)	.	.
2AA/	2e/	2a/	.
.	.	.	4c#/
=36	=36	=36	=36
1D;	1d;	1a;	1d
=	=	=	=
*-	*-	*-	*-
